X:1
T:Title
%%score ( 1 2 ) { 3 | 4 }
L:1/8
Q:1/4=90
M:6/8
K:Bb
V:1 treble nm="Grand Piano, Soprano"
V:2 treble 
V:3 bass nm="Choir Pad, There�s Life at the Open Door"
V:4 bass 
V:1
 [DF]/[DF]/[DF][_D=E] [=DF] [FA]2 | [EG] [DF]2- [DF] [DB]2 | z3 z .c2 | %3
w: By~William~Howard~Doane * * * * *|||
 [EG] [DF]2- [DF]2- [DF]/ z/ | [DF]/[DF]/[DF][_D=E] [=DF] [DF]2 | [DF] [EG]2- [EG] [EB]2 | %6
w: |||
 [GB][FA][FA] [FA] [Ec]2 | [Fd] [DB]2- [DB]2- [DB]/ z/ | [FB]/[FB]/[^FA][FA] [FA] [Fd]2 | %9
w: |||
 [^FA] [Gc]2- [Gc] [GB]2 | .B3 z3 | [EG] [DF]2- [DF]2- [DF]/ z/ | %12
w: |||
 [DF]/[DF]/[DF][_D=E] [=DF] [DF]2 | [DF] [EG]2- [EG] [EB]2 | [GB][Fd]>[Fd] [Fd] [Fd]2 | %15
w: |||
 [Ec] [DB]2- [DB]2- [DB]/ z/ | [DF] [Fd]2- [Fd]3 | [Ec] [DB]2- [DB] [DF]2 | %18
w: |||
 [FB][Fc][Fc] [Fc][Fc][Fd] | [Fe] [Fe]2- [Fe] [Fd]2 | [FB] [FA]2- [FA]/ z/ z z | %21
w: |||
 [FA] [FB]2- [FB]/ z/ z z | [Fc][F_d][Fd] [Fd] [Fe]2 | [F_d] [Fc]2- [Fc]2- [Fc]/ z/ | %24
w: |||
 [EF][DF][_D=E] [=DF] [DF]2 | [DF][EG][E^F] [EG] [EG]2 | [GB][Fd]>[Fd] [Fd] [Fd]2 | %27
w: |||
 [Ec] [DB]2- [DB]3- | [DB]3 z3 |] %29
w: ||
V:2
 x6 | x6 | [FB][GB][^FA] [GB]G-[GB] | x6 | x6 | x6 | x6 | x6 | x6 | x6 | %10
 F/-[FA]/[EG][E^F] [EG] [EB]2 | x6 | x6 | x6 | x6 | x6 | x6 | x6 | x6 | x6 | x6 | x6 | x6 | x6 | %24
 x6 | x6 | x6 | x6 | x6 |] %29
V:3
 B,/B,/B,B, B, B,2 | B, B,2- B, B,2 | B,B,B, B, B,2 | B, B,2- B,2- B,/ z/ | B,/B,/B,B, B, B,2 | %5
 B, B,2- B, G,2 | CCC C A,2 | A, B,2- B,2- B,/ z/ | D/[K:treble]D/DD D A,2 | D D2- D D2 | %10
 B,A,A, B, G,2 | B, B,2- B,2- B,/ z/ | B,/B,/B,B, B, B,2 | B, B,2- B, G,2 | B,B,>B, B, B,2 | %15
 A, B,2- B,2- B,/ z/ | B, B,2- B,3 | F, F,2- F, B,2 | B,A,A, A,A,B, | C C2- C B,2 | B,CC C C2 | %21
 C[K:bass] B,2 B, B,2 | A,B,B, B, C2 | B, A,2- A,2- A,/ z/ | A,B,B, B, B,2 | B,B,A, B, B,2 | %26
 B,B,>B, B, B,2 | A, B,2- B,3- | B,3 z3 |] %29
V:4
 B,,/B,,/B,,B,, B,, E,2 | E, B,,2- B,, B,,2 | D,E,E, E, E,2 | E, B,,2- B,,2- B,,/ z/ | %4
 B,,/B,,/B,,B,, B,, B,,2 | B,, E,2- E, E,2 | C,F,F, F, F,2 | F, B,,2- B,,2- B,,/ z/ | %8
 B,,/B,,/D,D, D, D,2 | D, G,2- G, G,2 | D,E,E, E, E,2 | E, B,,2- B,,2- B,,/ z/ | %12
 B,,/B,,/B,,B,, B,, B,,2 | B,, E,2- E, E,2 | E,F,>F, F, F,2 | F, B,,2- B,,2- B,,/ z/ | %16
 B,, B,,2- B,,3 | B,, B,,2- B,, B,,2 | D,F,F, F,F,F, | F, A,2- A, z z | D,F,F, F, F,2 | %21
 E, _D,2 D, D,2 | C,B,,B,, B,, A,,2 | B,, F,2- F,2- F,/ z/ | F,B,,B,, B,, B,,2 | B,,E,E, E, E,2 | %26
 E,F,>F, F, F,2 | F, B,,2- B,,3- | B,,3 z3 |] %29

